X: 40759
T: Toullen Douar
R: barndance
M: 4/4
K: Fmajor
G2 GA B2 AB|cB A2 B2 AB|G2 GA B2 AB|cB A2 G4|
G2 GA B2 AB|cB A2 B2 AB|G2 GA B2 AB|cB AF G4|
d2 cd c2 Bc|B2 AB A2 BA|G2 GA B2 AB|cB A2 G4|
d2 cd c2 Bc|B2 AB A2 BA|G2 GA B2 AB|cB AF G4:|
|:FG AB cB e2|ed c2 cB A2|FG AB cB d2|dc B2 BA G2|
FG AB cB e2|ed c2 cB A2|FG AB BA G2|FG AB BA G2:|

